X:20
T:Unknown Polka
Z:robin.beech@mcgill.ca
D:Timmy "The Brit" McCarthy: Movin' On
R:polka
M:2/4
L:1/8
K:D
f3 g- | gd BA | f3 g | ec d2 | f3 g | ed c3/B/ | Ac ef | ge d2 ::
e2 c/B/A | ed c3/B/ | Ac ef | ge ce- | ed c/B/A | ed c3/B/ | Ac ef | ge d2 :|
